src/main/resources/sampleConnector.svg

<svg height="8.34112in" viewBox="0 0 600 600" width="8.34112in" xmlns="http://www.w3.org/2000/svg" xmlns:xlink="http://www.w3.org/1999/xlink"><linearGradient id="a" x1=".465875" x2=".459941" y1=".96732" y2=".052288"><stop offset="0" stop-color="#a0a0a0"/><stop offset="1"/></linearGradient><g stroke="#000" stroke-linecap="round" stroke-linejoin="round"><path d="m335.2118 491.4533c-.7759 11.7651-7.7872 24.3619-15.918 30.7595-1.4789-8.5566-6.0921-14.7086-9.6244-16.8279-2.6111 5.7638-4.2514 9.8232-10.6094 17.1811 0 1-46.2973-28.2528-54.7945-57.5698-9.7651-35.7962-19.2767-37.5647-34.7659-80.5284" fill="none" stroke-width="4.99525"/><path d="m178.6188 224.9427c31.3075-24.9241 49.2824-36.1574 68.2983-38.7866 14.6098-2.0745 22.5885 7.342 34.5824 6.8439 11 3 31.0066-11.0009 41.4968-10.0019 9.9906-.999 29.5051 8.5005 39.0037 9.0019 24.9841-10.9879 58.9981-3.9981 75 19 18 21 34 53 34 53s70 10 91-69c8-48 1-74-10-97.99999-11-21.00004-38-41.00003-66-38.00002-28 3-47 19-60 19.99999-13 1.00004-24-1.99996-24-1.99996s1 13.99997 14 17.99999c13 3.99999 57 2 68 10.99999 11 9 27 42 23 69s-22.0444 31.4053-27 32c-20.0444 2.4053-40.8568-23.6278-55-44-15.3629-22.1292-28.5517-36.0922-54-37-20.0233-.6964-42.0024 19.5967-49.4702 19.5871-14.4914 1.4789-38.2531-24.0564-58.5298-22.5871-48.7233 3.5307-86.5014 89.2563-126.1766 89.9403-18.3248.316-25.8234-22.9403-26.8234-36.9403s15-78.99999 57-80.00001c42-.99998 62 3.00001 76-.99998 14-4.00002 19.5275-13.58475 22-17.99999-4.2387 1.76611-11.0644 4.99752-25.7661 1.58708-15.9952-3.99761-40.358-28.93793-89.2339-20.58709-57 10.99997-101 77.99999-100 108.99999s10 86 48 106 50 14 50 14 7.6681-43.4198 30.6188-62.0573z" fill="url(#a)" stroke-width="4.99525"/><path d="m147.8855 287.5226s-9.6519 31.5256-16.8855 44.4774c-6.5568 11.5633-13.1694 23.4057-23 31 8.537-1.2363 80.7613-22.4677 105-45 20-19 25-87 35-96s27-11 27-11" fill="none" stroke-width="4.99525"/><path d="m470.7963 263.5462c2.3009 5.6263 10.8182 40.0926 32.2037 33.4538-7.6066 15.3229-13.3254 17.409-37 16.75-23.4211-.661-44.07-17.51-51-30.25-1.4757 6.0267 2 19.5 1 23.5-.3495 3.6747-.699 4.8691-.699 11.0486" fill="none" stroke-width="4.99525"/><path d="m386.4582 343.6468c-3.8855-18.0145-25.1598-32.1145-44.4582-30.6468-31 5-22 34-19 38" fill="none" stroke-width="4.99525"/><path d="m340.4276 333.0441c5.3027-3.6995 15.7555-2.0502 21.9129 6.1743 4.8014 6.2558 9.9732 17.732 7.1832 20.0068-2.4372 2.2711-6.8261-3.7555-12.5196-6.2101-7.5759-3.4639-11.006-.9817-16.5765-7.2591-3.6912-3.9323-3.3737-10.3581 0-12.7119z" stroke-width="4.233277"/><path d="m388 211c-6.25 3.25-13 14.75-14 34.75 4.5 15.5 27 40.25 35.5 61.75 1 11 14.5 18.0023 18.5 18.0023s10.2588-7.0603 17.9953-1.6513c10.829 7.9242 5.0411 28.8374 2.508 35.149-3.4189 9.0178-8.1945 11.4733-8.6868 23.0894-.3528 8.6776 2.7 10.4449 1.1835 19.9106-2.0745 13.4478-15 19-21 19s-30.2227-4.3051-42.4958-4.5042c-19.7805-.3047-71.3263 18.4558-92.9916-28.5154" fill="none" stroke-width="4.99525"/><path d="m434.5774 415.0769c3.0907 5.21 1.8036 21.4474-3.8821 32.8569-7.6677 11.3959-23.7761 30.8153-30.581 37.1951-6.6793 6.7581-15.2246 27.1922-33.394 37.7817-1.6948-13.3859-7.1236-10.4287-9.0416-24.5014-2.2217 15.0797-11.05 21.4319-17.8834 27.1231.7395-15.4858-6.394-14.0496-6.9519-23.2267" fill="none" stroke-width="4.99525"/><path d="m319 211c4.246 3.4967 16.4958 23.9869 18.2479 36.4837" fill="none" stroke-width="4.99525"/><path d="m394 200s12 11 13 15 3 26-2 27" fill="none" stroke-width="4.99525"/><path d="m407.5 276c2.9271 4.228 8.0509 22.9247 8.0509 22.9247" fill="none" stroke-width="4.99525"/><path d="m407.5 249v-7.5" fill="none" stroke-width="4.99525"/><path d="m378.5 250.75s13.5-5.5 17.25-5 16.75 8.25 16.75 8.25-1.5 7.25-2.75 6.5-5.5-7.25-10.75-8-20.5-1.75-20.5-1.75z" stroke-width="4.99525"/><path d="m394.3958 252.1301c-4.8877-.1806-10.2124 2.8113-9.9092 8.9012.2473 4.7949 3.2402 6.3922 7.9677 6.7689 5.4414.4168 8.7263-2.959 8.5618-7.5539-.1276-3.7765-2.3804-7.9662-6.6203-8.1162z" stroke-width="4.451735"/><path d="m319.25 255.5s-.2538-4.2551-5.25-9.75c-3.9972-.4995-20.7505 1.7493-26.7505 4.2493s-9.0056 8.2495-15.2495 15.0007c8.5-5.25 16.1727-9.1038 23.7467-10.4993 9.748-1.75 23.5033.9993 23.5033.9993z" stroke-width="4.99525"/><path d="m277.7472 265.4998c5.4949 4.7455 10.7707 8.5023 25.261 7.0026 14.2404-4.2472 14.4918-10.0024 14.4918-10.0024" fill="none" stroke-width="4.99525"/><path d="m300.5238 252.6786c-5.8908.9187-9.5251 5.6875-8.4643 10.4427.8586 4.041 4.1466 7.6066 9.3334 7.4025 6.1538-.4803 9.5274-4.7615 8.7775-9.945-.8693-4.5612-5.2916-8.5531-9.6466-7.9002z" stroke-width="4.99525"/><path d="m275.24997 247.74203c3.4979-11.7395 11.50536-16.24273 18.50376-17.24203 15.2507-.0009 20.24677 7.7519 21.49627 10.5" fill="none" stroke-width="4.99525"/><path d="m374.7512 237.753c6.4939-3.9962 3.7507-3.753 12.4969-5.253 10.7445-1.9995 16.4967 4.9991 16.4967 4.9991" fill="none" stroke-width="4.99525"/><path d="m386.8886 268.5594c3.2054.3748 7.1599 1.4988 11.6141 1.1241 4.704-.2082 6.4108-1.6651 9.8658-3.6216" fill="none" stroke-width="4.99525"/><path d="m426.917 453.2415c-7.3823 4.9149-21.0139 6.4406-31.0278 6.99-9.6744.5307-41.5833 2.7839-56.9484-1.4548 16.0716 4.2387 4.3563-.3459 19.9907 2.9537 5.0377 6.4787 37.3269 9.1521 53.1314 8.1554 3.901-4.0436 10.7639-11.6998 14.8541-16.6443z" fill-rule="evenodd" stroke-width="4.99525"/></g><path d="m299.72 261.4412a2.247894 2.372787 0 1 0 -4.4958 0 2.247894 2.372787 0 1 0 4.4958 0z" fill="#fff" fill-rule="evenodd" transform="matrix(1.33334 0 0 1.33334 -98.4101 -87.60663)"/><path d="m299.72 261.4412a2.247894 2.372787 0 1 0 -4.4958 0 2.247894 2.372787 0 1 0 4.4958 0z" fill="#f2f2f2" fill-rule="evenodd" transform="matrix(1.166669 0 0 1.166672 43.45883 -46.17665)"/><path d="m309.731 505.1258c1.4129-3.5322 1.2363-8.4775.7065-13.0693" fill="none" stroke="#000" stroke-linecap="round" stroke-linejoin="round" stroke-width="4.99525"/><path d="m357.6535 498.5306c0-3.5323-.5152-5.8783-.9291-8.8149" fill="none" stroke="#000" stroke-linecap="round" stroke-linejoin="round" stroke-width="4.99525"/></svg>

<?xml version="1.0" encoding="UTF-8" standalone="no"?>
<!DOCTYPE svg PUBLIC "-//W3C//DTD SVG 20010904//EN"
"http://www.w3.org/TR/2001/REC-SVG-20010904/DTD/svg10.dtd">
<!-- Created with Sodipodi ("http://www.sodipodi.com/") -->
<svg
   width="8.34112in"
   height="8.34112in"
   viewBox="0 0 600 600"
   id="svg602"
   sodipodi:version="0.32"
   sodipodi:docname="nu-gnu.svg"
   sodipodi:docbase="/home/sven"
   inkscape:version="0.39"
   xmlns="http://www.w3.org/2000/svg"
   xmlns:cc="http://web.resource.org/cc/"
   xmlns:inkscape="http://www.inkscape.org/namespaces/inkscape"
   xmlns:sodipodi="http://sodipodi.sourceforge.net/DTD/sodipodi-0.dtd"
   xmlns:rdf="http://www.w3.org/1999/02/22-rdf-syntax-ns#"
   xmlns:dc="http://purl.org/dc/elements/1.1/"
   xmlns:xlink="http://www.w3.org/1999/xlink">
  <defs
     id="defs605">
    <linearGradient
       id="linearGradient659">
      <stop
         style="stop-color:#a0a0a0;stop-opacity:1.0000000;"
         offset="0.0000000"
         id="stop660" />
      <stop
         style="stop-color:#000000;stop-opacity:1.0000000;"
         offset="1.0000000"
         id="stop661" />
    </linearGradient>
    <linearGradient
       xlink:href="#linearGradient659"
       id="linearGradient662"
       x1="0.46587536"
       y1="0.96732026"
       x2="0.45994064"
       y2="0.052287582" />
  </defs>
  <sodipodi:namedview
     id="base"
     inkscape:zoom="1.0000000"
     inkscape:cx="434.58488"
     inkscape:cy="295.12811"
     inkscape:window-width="1152"
     inkscape:window-height="778"
     inkscape:window-x="0"
     inkscape:window-y="28" />
  <path
     style="stroke-width:4.9952502;stroke-dasharray:none;stroke-linejoin:round;stroke-linecap:round;fill:none;stroke:#000000;stroke-opacity:1;stroke-miterlimit:4.0000000;stroke-dashoffset:0.0000000;"
     d="M 335.2118 491.4533 C 334.4359 503.2184 327.4246 515.8152 319.2938 522.2128 C 317.8149 513.6562 313.2017 507.5042 309.6694 505.3849 C 307.0583 511.1487 305.418 515.2081 299.06 522.566 C 299.06 523.566 252.7627 494.3132 244.2655 464.9962 C 234.5004 429.2 224.9888 427.4315 209.4996 384.4678 "
     id="path629"
     sodipodi:nodetypes="ccccsc" />
  <path
     style="stroke-width:4.9952502;stroke-dasharray:none;stroke-linejoin:round;stroke-linecap:round;fill:url(#linearGradient662);stroke:#000000;stroke-opacity:1;fill-opacity:1.0000000;fill-rule:nonzero;stroke-miterlimit:4.0000000;stroke-dashoffset:0.0000000;"
     d="M 178.6188 224.9427 C 209.9263 200.0186 227.9012 188.7853 246.9171 186.1561 C 261.5269 184.0816 269.5056 193.4981 281.4995 193 C 292.4995 196 312.5061 181.9991 322.9963 182.9981 C 332.9869 181.9991 352.5014 191.4986 362 192 C 386.9841 181.0121 420.9981 188.0019 437 211 C 455 232 471 264 471 264 C 471 264 541 274 562 195 C 570 147 563 121 552 97.00001 C 541 75.99997 514 55.99998 486 58.99999 C 458 61.99999 439 77.99999 426 78.99998 C 413 80.00002 402 77.00002 402 77.00002 C 402 77.00002 403 90.99999 416 95.00001 C 429 99 473 97.00001 484 106 C 495 115 511 148 507 175 C 503 202 484.9556 206.4053 480 207 C 459.9556 209.4053 439.1432 183.3722 425 163 C 409.6371 140.8708 396.4483 126.9078 371 126 C 350.9767 125.3036 328.9976 145.5967 321.5298 145.5871 C 307.0384 147.066 283.2767 121.5307 263 123 C 214.2767 126.5307 176.4986 212.2563 136.8234 212.9403 C 118.4986 213.2563 111 190 110 176 C 109 162 125 97.00001 167 95.99999 C 209 95.00001 229 99 243 95.00001 C 257 90.99999 262.5275 81.41526 265 77.00002 C 260.7613 78.76613 253.9356 81.99754 239.2339 78.5871 C 223.2387 74.58949 198.8759 49.64917 150 58.00001 C 93 68.99998 49 136 50 167 C 51 198 60 253 98 273 C 136 293 148 287 148 287 C 148 287 155.6681 243.5802 178.6188 224.9427 z "
     id="path630"
     sodipodi:nodetypes="cscccccccccccccssscsssccccccccs" />
  <path
     style="stroke-width:4.9952502;stroke-dasharray:none;stroke-linejoin:round;stroke-linecap:round;fill:none;stroke:#000000;stroke-opacity:1;stroke-miterlimit:4.0000000;stroke-dashoffset:0.0000000;"
     d="M 147.8855 287.5226 C 147.8855 287.5226 138.2336 319.0482 131 332 C 124.4432 343.5633 117.8306 355.4057 108 363 C 116.537 361.7637 188.7613 340.5323 213 318 C 233 299 238 231 248 222 C 258 213 275 211 275 211 "
     id="path631"
     sodipodi:nodetypes="cscccc" />
  <path
     style="stroke-width:4.9952502;stroke-dasharray:none;stroke-linejoin:round;stroke-linecap:round;fill:none;stroke:#000000;stroke-opacity:1;stroke-miterlimit:4.0000000;stroke-dashoffset:0.0000000;"
     d="M 470.7963 263.5462 C 473.0972 269.1725 481.6145 303.6388 503 297 C 495.3934 312.3229 489.6746 314.409 466 313.75 C 442.5789 313.089 421.93 296.24 415 283.5 C 413.5243 289.5267 417 303 416 307 C 415.6505 310.6747 415.301 311.8691 415.301 318.0486 "
     id="path632"
     sodipodi:nodetypes="ccsccc" />
  <path
     style="stroke-width:4.9952502;stroke-dasharray:none;stroke-linejoin:round;stroke-linecap:round;fill:none;stroke:#000000;stroke-opacity:1;stroke-miterlimit:4.0000000;stroke-dashoffset:0.0000000;"
     d=""
     id="path633"
     sodipodi:nodetypes="c" />
  <path
     style="stroke-width:4.9952502;stroke-dasharray:none;stroke-linejoin:round;stroke-linecap:round;fill:none;stroke:#000000;stroke-opacity:1;stroke-miterlimit:4.0000000;stroke-dashoffset:0.0000000;"
     d="M 386.4582 343.6468 C 382.5727 325.6323 361.2984 311.5323 342 313 C 311 318 320 347 323 351 "
     id="path634"
     sodipodi:nodetypes="ccc" />
  <path
     style="font-size:12;stroke:#000000;stroke-width:4.2332773;stroke-linecap:round;stroke-linejoin:round;stroke-miterlimit:4.0000000;stroke-dasharray:none;stroke-dashoffset:0.0000000;"
     d="M 340.4276 333.0441 C 345.7303 329.3446 356.1831 330.9939 362.3405 339.2184 C 367.1419 345.4742 372.3137 356.9504 369.5237 359.2252 C 367.0865 361.4963 362.6976 355.4697 357.0041 353.0151 C 349.4282 349.5512 345.9981 352.0334 340.4276 345.756 C 336.7364 341.8237 337.0539 335.3979 340.4276 333.0441 z "
     id="path635"
     sodipodi:nodetypes="csssss" />
  <path
     style="stroke-width:4.9952502;stroke-dasharray:none;stroke-linejoin:round;stroke-linecap:round;fill:none;stroke:#000000;stroke-opacity:1;stroke-miterlimit:4.0000000;stroke-dashoffset:0.0000000;"
     d="M 388 211 C 381.75 214.25 375 225.75 374 245.75 C 378.5 261.25 401 286 409.5 307.5 C 410.5 318.5 424 325.5023 428 325.5023 C 432 325.5023 438.2588 318.442 445.9953 323.851 C 456.8243 331.7752 451.0364 352.6884 448.5033 359 C 445.0844 368.0178 440.3088 370.4733 439.8165 382.0894 C 439.4637 390.767 442.5165 392.5343 441 402 C 438.9255 415.4478 426 421 420 421 C 414 421 389.7773 416.6949 377.5042 416.4958 C 357.7237 416.1911 306.1779 434.9516 284.5126 387.9804 "
     id="path636"
     sodipodi:nodetypes="cccssssscsc" />
  <path
     style="stroke-width:4.9952502;stroke-dasharray:none;stroke-linejoin:round;stroke-linecap:round;fill:none;stroke:#000000;stroke-opacity:1;stroke-miterlimit:4.0000000;stroke-dashoffset:0.0000000;"
     d="M 434.5774 415.0769 C 437.6681 420.2869 436.381 436.5243 430.6953 447.9338 C 423.0276 459.3297 406.9192 478.7491 400.1143 485.1289 C 393.435 491.887 384.8897 512.3211 366.7203 522.9106 C 365.0255 509.5247 359.5967 512.4819 357.6787 498.4092 C 355.457 513.4889 346.6287 519.8411 339.7953 525.5323 C 340.5348 510.0465 333.4013 511.4827 332.8434 502.3056 "
     id="path637"
     sodipodi:nodetypes="ccscccc" />
  <path
     style="stroke-width:4.9952502;stroke-dasharray:none;stroke-linejoin:round;stroke-linecap:round;fill:none;stroke:#000000;stroke-opacity:1;stroke-dashoffset:0.0000000;stroke-miterlimit:4.0000000;"
     d="M 319 211 C 323.246 214.4967 335.4958 234.9869 337.2479 247.4837 "
     id="path638"
     sodipodi:nodetypes="cc" />
  <path
     style="stroke-width:4.9952502;stroke-dasharray:none;stroke-linejoin:round;stroke-linecap:round;fill:none;stroke:#000000;stroke-opacity:1;stroke-miterlimit:4.0000000;stroke-dashoffset:0.0000000;"
     d="M 394 200 C 394 200 406 211 407 215 C 408 219 410 241 405 242 "
     id="path639" />
  <path
     style="stroke-width:4.9952502;stroke-dasharray:none;stroke-linejoin:round;stroke-linecap:round;fill:none;stroke:#000000;stroke-opacity:1;stroke-miterlimit:4.0000000;stroke-dashoffset:0.0000000;"
     d="M 407.5 276 C 410.4271 280.228 415.5509 298.9247 415.5509 298.9247 "
     id="path640"
     sodipodi:nodetypes="cc" />
  <path
     style="stroke-width:4.9952502;stroke-dasharray:none;stroke-linejoin:round;stroke-linecap:round;fill:none;stroke:#000000;stroke-opacity:1;stroke-miterlimit:4.0000000;stroke-dashoffset:0.0000000;"
     d="M 407.5 249 C 407.5 249 407.5 241.5 407.5 241.5 "
     id="path641" />
  <path
     style="stroke-width:4.9952502;stroke-dasharray:none;stroke-linejoin:round;stroke-linecap:round;fill:#000000;stroke:#000000;stroke-opacity:1;fill-opacity:1;stroke-miterlimit:4.0000000;stroke-dashoffset:0.0000000;"
     d="M 378.5 250.75 C 378.5 250.75 392 245.25 395.75 245.75 C 399.5 246.25 412.5 254 412.5 254 C 412.5 254 411 261.25 409.75 260.5 C 408.5 259.75 404.25 253.25 399 252.5 C 393.75 251.75 378.5 250.75 378.5 250.75 z "
     id="path642" />
  <path
     style="font-size:12;stroke:#000000;stroke-width:4.4517350;stroke-linecap:round;stroke-linejoin:round;stroke-miterlimit:4.0000000;stroke-dasharray:none;stroke-dashoffset:0.0000000;"
     d="M 394.3958 252.1301 C 389.5081 251.9495 384.1834 254.9414 384.4866 261.0313 C 384.7339 265.8262 387.7268 267.4235 392.4543 267.8002 C 397.8957 268.217 401.1806 264.8412 401.0161 260.2463 C 400.8885 256.4698 398.6357 252.2801 394.3958 252.1301 z "
     id="path643"
     sodipodi:nodetypes="cssss" />
  <path
     style="stroke-width:4.9952502;stroke-dasharray:none;stroke-linejoin:round;stroke-linecap:round;fill:#000000;stroke:#000000;stroke-opacity:1;fill-opacity:1;stroke-miterlimit:4.0000000;stroke-dashoffset:0.0000000;"
     d="M 319.25 255.5 C 319.25 255.5 318.9962 251.2449 314 245.75 C 310.0028 245.2505 293.2495 247.4993 287.2495 249.9993 C 281.2495 252.4993 278.2439 258.2488 272 265 C 280.5 259.75 288.1727 255.8962 295.7467 254.5007 C 305.4947 252.7507 319.25 255.5 319.25 255.5 z "
     id="path644"
     sodipodi:nodetypes="ccccsc" />
  <path
     style="stroke-width:4.9952502;stroke-dasharray:none;stroke-linejoin:round;stroke-linecap:round;fill:none;stroke:#000000;stroke-opacity:1;stroke-miterlimit:4.0000000;stroke-dashoffset:0.0000000;"
     d="M 277.7472 265.4998 C 283.2421 270.2453 288.5179 274.0021 303.0082 272.5024 C 317.2486 268.2552 317.5 262.5 317.5 262.5 "
     id="path645"
     sodipodi:nodetypes="ccc" />
  <path
     style="stroke-width:4.9952502;stroke-dasharray:none;stroke-linejoin:round;stroke-linecap:round;fill:#000000;stroke:#000000;stroke-opacity:1;fill-opacity:1;stroke-miterlimit:4.0000000;stroke-dashoffset:0.0000000;"
     d="M 300.5238 252.6786 C 294.633 253.5973 290.9987 258.3661 292.0595 263.1213 C 292.9181 267.1623 296.2061 270.7279 301.3929 270.5238 C 307.5467 270.0435 310.9203 265.7623 310.1704 260.5788 C 309.3011 256.0176 304.8788 252.0257 300.5238 252.6786 z "
     id="path646"
     sodipodi:nodetypes="cssss" />
  <path
     style="stroke-width:4.9952502;stroke-dasharray:none;stroke-linejoin:round;stroke-linecap:round;fill:none;stroke:#000000;stroke-opacity:1;stroke-miterlimit:4.0000000;stroke-dashoffset:0.0000000;"
     d="M 275.24997,247.74203 C 278.74787,236.00253 286.75533,231.49930 293.75373,230.50000 C 309.00443,230.49910 314.00050,238.25190 315.25000,241.00000"
     id="path647"
     sodipodi:nodetypes="ccc" />
  <path
     style="stroke-width:4.9952502;stroke-dasharray:none;stroke-linejoin:round;stroke-linecap:round;fill:none;stroke:#000000;stroke-opacity:1;stroke-miterlimit:4.0000000;stroke-dashoffset:0.0000000;"
     d="M 374.7512 237.753 C 381.2451 233.7568 378.5019 234 387.2481 232.5 C 397.9926 230.5005 403.7448 237.4991 403.7448 237.4991 "
     id="path648"
     sodipodi:nodetypes="ccc" />
  <path
     style="fill:none;fill-rule:evenodd;stroke:black;stroke-opacity:1;stroke-width:4.9952502;stroke-linejoin:round;stroke-linecap:round;stroke-dasharray:none;stroke-dashoffset:0.0000000;fill-opacity:1;stroke-miterlimit:4.0000000;"
     d="M 386.8886 268.5594 C 390.094 268.9342 394.0485 270.0582 398.5027 269.6835 C 403.2067 269.4753 404.9135 268.0184 408.3685 266.0619 "
     id="path652"
     sodipodi:nodetypes="ccc" />
  <path
     style="fill:#000000;fill-rule:evenodd;stroke:black;stroke-opacity:1;stroke-width:4.9952502;stroke-linejoin:round;stroke-linecap:round;stroke-dasharray:none;stroke-dashoffset:0.0000000;fill-opacity:1;stroke-miterlimit:4.0000000;"
     d="M 426.917 453.2415 C 419.5347 458.1564 405.9031 459.6821 395.8892 460.2315 C 386.2148 460.7622 354.3059 463.0154 338.9408 458.7767 C 355.0124 463.0154 343.2971 458.4308 358.9315 461.7304 C 363.9692 468.2091 396.2584 470.8825 412.0629 469.8858 C 415.9639 465.8422 422.8268 458.186 426.917 453.2415 z "
     id="path656"
     sodipodi:nodetypes="cscccc" />
  <path
     sodipodi:type="arc"
     style="fill-rule:evenodd;stroke:none;fill:#ffffff;fill-opacity:1;stroke-opacity:1;stroke-width:3.1250000;stroke-linejoin:round;stroke-linecap:round;stroke-miterlimit:4.0000000;stroke-dasharray:none;stroke-dashoffset:0.0000000;"
     id="path657"
     d="M 299.72 261.4412 A 2.247894 2.372787 0 1 0 295.2242 261.4412 A 2.247894 2.372787 0 1 0  299.72 261.4412 z"
     sodipodi:cx="297.472137"
     sodipodi:cy="261.441223"
     sodipodi:rx="2.24789429"
     sodipodi:ry="2.37278748"
     transform="matrix(1.33334,0,0,1.33334,-98.4101,-87.60663)" />
  <path
     sodipodi:type="arc"
     style="fill-rule:evenodd;stroke:none;fill:#f2f2f2;fill-opacity:1;stroke-opacity:1;stroke-width:3.1250000;stroke-linejoin:round;stroke-linecap:round;stroke-miterlimit:4.0000000;stroke-dasharray:none;stroke-dashoffset:0.0000000;"
     id="path658"
     d="M 299.72 261.4412 A 2.247894 2.372787 0 1 0 295.2242 261.4412 A 2.247894 2.372787 0 1 0  299.72 261.4412 z"
     sodipodi:cx="297.472137"
     sodipodi:cy="261.441223"
     sodipodi:rx="2.24789429"
     sodipodi:ry="2.37278748"
     transform="matrix(1.166669,0,0,1.166672,43.45883,-46.17665)" />
  <path
     style="fill:none;fill-rule:evenodd;stroke:black;stroke-opacity:1;stroke-width:4.9952502;stroke-linejoin:round;stroke-linecap:round;stroke-dasharray:none;stroke-dashoffset:0.0000000;fill-opacity:1;stroke-miterlimit:4.0000000;"
     d="M 309.731 505.1258 C 311.1439 501.5936 310.9673 496.6483 310.4375 492.0565 "
     id="path736"
     sodipodi:nodetypes="cc" />
  <path
     style="fill:none;fill-rule:evenodd;stroke:black;stroke-opacity:1;stroke-width:4.9952502;stroke-linejoin:round;stroke-linecap:round;stroke-dasharray:none;stroke-dashoffset:0.0000000;fill-opacity:1;stroke-miterlimit:4.0000000;"
     d="M 357.6535 498.5306 C 357.6535 494.9983 357.1383 492.6523 356.7244 489.7157 "
     id="path737"
     sodipodi:nodetypes="cc" />
  <metadata
     id="metadata1601">
    <rdf:RDF
       id="RDF1602">
      <cc:Work
         rdf:about=""
         id="Work1603">
        <dc:format
           id="format1604">image/svg+xml</dc:format>
        <dc:type
           id="type1606"
           rdf:resource="http://purl.org/dc/dcmitype/StillImage" />
      </cc:Work>
    </rdf:RDF>
  </metadata>
</svg>
